; generated by PrusaSlicer 2.5.2+win64 on 2023-06-11 at 18:54:29 UTC


;
;

;
;
; 

; external perimeters extrusion width = 0.45mm
; perimeters extrusion width = 0.45mm
; infill extrusion width = 0.45mm
; solid infill extrusion width = 0.45mm
; top infill extrusion width = 0.40mm
; first layer extrusion width = 0.42mm

M73 P0 R13
M201 X2500 Y2500 Z400 E5000 ; sets maximum accelerations, mm/sec^2
M203 X180 Y180 Z12 E80 ; sets maximum feedrates, mm / sec
M204 P2000 R1250 T2500 ; sets acceleration (P, T) and retract acceleration (R), mm/sec^2
M205 X8.00 Y8.00 Z2.00 E10.00 ; sets the jerk limits, mm/sec
M205 S0 T0 ; sets the minimum extruding and travel feed rate, mm/sec
M107
;TYPE:Custom
M862.3 P "MINI" ; printer model check
G90 ; use absolute coordinates
M83 ; extruder relative mode
M104 S170 ; set extruder temp for bed leveling
M140 S85 ; set bed temp
M109 R170 ; wait for bed leveling temp
M190 S85 ; wait for bed temp
M204 T1250 ; set travel acceleration
G28 ; home all without mesh bed level
G29 ; mesh bed leveling 
M204 T2500 ; restore travel acceleration
M104 S230 ; set extruder temp
G92 E0
G1 Y-2 X179 F2400
G1 Z3 F720
M109 S230 ; wait for extruder temp

; intro line
M73 P0 R12
G1 X170 F1000
G1 Z0.2 F720
G1 X110 E8 F900
G1 X40 E10 F700
G92 E0

M221 S95 ; set flow
G21 ; set units to millimeters
G90 ; use absolute coordinates
M83 ; use relative distances for extrusion
M900 K0.2 ; Filament gcode
M107
;LAYER_CHANGE
;Z:0.2
;HEIGHT:0.2
;BEFORE_LAYER_CHANGE
G92 E0.0
;0.2


M73 P1 R12
G1 E-3.2 F2700
G1 Z.2 F720
;AFTER_LAYER_CHANGE
;0.2
M73 P2 R12
G1 Z.4
G1 X50.515 Y51.193 F9000
G1 Z.2 F720
G1 E3.2 F1500
M204 P600
;TYPE:Skirt/Brim
;WIDTH:0.42
G1 F1200
G1 X51.56 Y50.317 E.04278
G1 X52.5 Y50.123 E.03008
G1 X127.5 Y50.123 E2.35157
G1 X128.807 Y50.515 E.04278
G1 X129.683 Y51.56 E.04278
G1 X129.877 Y52.5 E.03008
G1 X129.877 Y127.5 E2.35157
G1 X129.485 Y128.807 E.04278
M73 P3 R12
G1 X128.44 Y129.683 E.04278
G1 X127.5 Y129.877 E.03008
G1 X52.5 Y129.877 E2.35157
G1 X51.193 Y129.485 E.04278
G1 X50.317 Y128.44 E.04278
G1 X50.123 Y127.5 E.03008
G1 X50.123 Y52.5 E2.35157
G1 X50.497 Y51.25 E.0409
M204 P1000
; printing object Shape-Box id:0 copy 0
M73 P4 R12
G1 E-2.24 F2700
;WIPE_START
G1 F7200
G1 X51.56 Y50.317 E-.50407
G1 X52.5 Y50.123 E-.34182
G1 X52.686 Y50.123 E-.06611
;WIPE_END
G1 E-.048 F2700
G1 Z.4 F720
G1 X53.287 Y53.287 F9000
G1 Z.2 F720
G1 E3.2 F1500
M204 P600
;TYPE:Perimeter
;WIDTH:0.419999
G1 F1200
G1 X126.713 Y53.287 E2.30221
G1 X126.713 Y126.713 E2.30221
G1 X53.287 Y126.713 E2.30221
M73 P5 R12
G1 X53.287 Y53.347 E2.30033
M204 P1000
G1 X52.91 Y52.91 F9000
M204 P600
;TYPE:External perimeter
M73 P6 R12
G1 F1200
G1 X127.09 Y52.91 E2.32586
G1 X127.09 Y127.09 E2.32586
G1 X52.91 Y127.09 E2.32586
G1 X52.91 Y52.97 E2.32398
M204 P1000
M73 P7 R12
G1 X53.296 Y53.014 F9000
M73 P7 R11
G1 E-2.24 F2700
;WIPE_START
G1 F7200
G1 X55.47 Y52.968 E-.912
;WIPE_END
G1 E-.048 F2700
G1 Z.4 F720
G1 X125.78 Y53.457 F9000
G1 Z.2 F720
M73 P8 R11
G1 E3.2 F1500
M204 P600
;TYPE:Solid infill
;WIDTH:0.42034
G1 F1200
G1 X126.374 Y54.05 E.02633
G1 X126.374 Y54.584 E.01675
G1 X125.416 Y53.626 E.04249
G1 X124.882 Y53.626 E.01675
G1 X126.374 Y55.118 E.06618
G1 X126.374 Y55.651 E.01675
G1 X124.349 Y53.626 E.08987
G1 X123.815 Y53.626 E.01675
G1 X126.374 Y56.185 E.11356
G1 X126.374 Y56.719 E.01675
G1 X123.281 Y53.626 E.13725
G1 X122.747 Y53.626 E.01675
G1 X126.374 Y57.253 E.16093
G1 X126.374 Y57.786 E.01675
G1 X122.214 Y53.626 E.18462
G1 X121.68 Y53.626 E.01675
G1 X126.374 Y58.32 E.20831
G1 X126.374 Y58.854 E.01675
G1 X121.146 Y53.626 E.232
G1 X120.612 Y53.626 E.01675
G1 X126.374 Y59.388 E.25569
G1 X126.374 Y59.921 E.01675
G1 X120.079 Y53.626 E.27938
G1 X119.545 Y53.626 E.01675
G1 X126.374 Y60.455 E.30307
G1 X126.374 Y60.989 E.01675
G1 X119.011 Y53.626 E.32676
G1 X118.477 Y53.626 E.01675
G1 X126.374 Y61.523 E.35044
G1 X126.374 Y62.056 E.01675
G1 X117.944 Y53.626 E.37413
G1 X117.41 Y53.626 E.01675
G1 X126.374 Y62.59 E.39782
G1 X126.374 Y63.124 E.01675
G1 X116.876 Y53.626 E.42151
G1 X116.342 Y53.626 E.01675
G1 X126.374 Y63.658 E.4452
G1 X126.374 Y64.191 E.01675
M73 P9 R11
G1 X115.809 Y53.626 E.46889
G1 X115.275 Y53.626 E.01675
G1 X126.374 Y64.725 E.49258
G1 X126.374 Y65.259 E.01675
G1 X114.741 Y53.626 E.51627
G1 X114.207 Y53.626 E.01675
G1 X126.374 Y65.793 E.53996
G1 X126.374 Y66.326 E.01675
G1 X113.674 Y53.626 E.56364
G1 X113.14 Y53.626 E.01675
G1 X126.374 Y66.86 E.58733
G1 X126.374 Y67.394 E.01675
G1 X112.606 Y53.626 E.61102
G1 X112.072 Y53.626 E.01675
G1 X126.374 Y67.928 E.63471
G1 X126.374 Y68.461 E.01675
M73 P10 R11
G1 X111.539 Y53.626 E.6584
G1 X111.005 Y53.626 E.01675
G1 X126.374 Y68.995 E.68209
G1 X126.374 Y69.529 E.01675
G1 X110.471 Y53.626 E.70578
G1 X109.937 Y53.626 E.01675
G1 X126.374 Y70.063 E.72947
G1 X126.374 Y70.596 E.01675
G1 X109.404 Y53.626 E.75316
G1 X108.87 Y53.626 E.01675
G1 X126.374 Y71.13 E.77684
G1 X126.374 Y71.664 E.01675
G1 X108.336 Y53.626 E.80053
G1 X107.802 Y53.626 E.01675
M73 P11 R11
G1 X126.374 Y72.198 E.82422
G1 X126.374 Y72.731 E.01675
G1 X107.269 Y53.626 E.84791
G1 X106.735 Y53.626 E.01675
G1 X126.374 Y73.265 E.8716
G1 X126.374 Y73.799 E.01675
G1 X106.201 Y53.626 E.89529
G1 X105.667 Y53.626 E.01675
G1 X126.374 Y74.333 E.91898
G1 X126.374 Y74.866 E.01675
M73 P12 R11
G1 X105.134 Y53.626 E.94267
G1 X104.6 Y53.626 E.01675
G1 X126.374 Y75.4 E.96635
G1 X126.374 Y75.934 E.01675
G1 X104.066 Y53.626 E.99004
G1 X103.532 Y53.626 E.01675
G1 X126.374 Y76.468 E1.01373
G1 X126.374 Y77.001 E.01675
G1 X102.999 Y53.626 E1.03742
G1 X102.465 Y53.626 E.01675
M73 P13 R11
G1 X126.374 Y77.535 E1.06111
G1 X126.374 Y78.069 E.01675
G1 X101.931 Y53.626 E1.0848
G1 X101.397 Y53.626 E.01675
G1 X126.374 Y78.603 E1.10849
G1 X126.374 Y79.136 E.01675
G1 X100.864 Y53.626 E1.13218
G1 X100.33 Y53.626 E.01675
G1 X126.374 Y79.67 E1.15587
G1 X126.374 Y80.204 E.01675
M73 P14 R11
G1 X99.796 Y53.626 E1.17955
G1 X99.262 Y53.626 E.01675
G1 X126.374 Y80.738 E1.20324
G1 X126.374 Y81.271 E.01675
G1 X98.729 Y53.626 E1.22693
G1 X98.195 Y53.626 E.01675
G1 X126.374 Y81.805 E1.25062
G1 X126.374 Y82.339 E.01675
M73 P15 R11
G1 X97.661 Y53.626 E1.27431
G1 X97.127 Y53.626 E.01675
G1 X126.374 Y82.873 E1.298
G1 X126.374 Y83.406 E.01675
M73 P15 R10
G1 X96.594 Y53.626 E1.32169
G1 X96.06 Y53.626 E.01675
M73 P16 R10
G1 X126.374 Y83.94 E1.34538
G1 X126.374 Y84.474 E.01675
G1 X95.526 Y53.626 E1.36907
G1 X94.992 Y53.626 E.01675
G1 X126.374 Y85.008 E1.39275
G1 X126.374 Y85.541 E.01675
G1 X94.459 Y53.626 E1.41644
G1 X93.925 Y53.626 E.01675
M73 P17 R10
G1 X126.374 Y86.075 E1.44013
G1 X126.374 Y86.609 E.01675
G1 X93.391 Y53.626 E1.46382
G1 X92.857 Y53.626 E.01675
G1 X126.374 Y87.143 E1.48751
G1 X126.374 Y87.676 E.01675
M73 P18 R10
G1 X92.324 Y53.626 E1.5112
G1 X91.79 Y53.626 E.01675
G1 X126.374 Y88.21 E1.53489
G1 X126.374 Y88.744 E.01675
G1 X91.256 Y53.626 E1.55858
G1 X90.722 Y53.626 E.01675
M73 P19 R10
G1 X126.374 Y89.278 E1.58226
G1 X126.374 Y89.811 E.01675
G1 X90.189 Y53.626 E1.60595
G1 X89.655 Y53.626 E.01675
G1 X126.374 Y90.345 E1.62964
G1 X126.374 Y90.879 E.01675
M73 P20 R10
G1 X89.121 Y53.626 E1.65333
G1 X88.587 Y53.626 E.01675
G1 X126.374 Y91.413 E1.67702
G1 X126.374 Y91.946 E.01675
G1 X88.054 Y53.626 E1.70071
G1 X87.52 Y53.626 E.01675
M73 P21 R10
G1 X126.374 Y92.48 E1.7244
G1 X126.374 Y93.014 E.01675
G1 X86.986 Y53.626 E1.74809
G1 X86.452 Y53.626 E.01675
G1 X126.374 Y93.548 E1.77178
G1 X126.374 Y94.081 E.01675
M73 P22 R10
G1 X85.919 Y53.626 E1.79546
G1 X85.385 Y53.626 E.01675
G1 X126.374 Y94.615 E1.81915
G1 X126.374 Y95.149 E.01675
G1 X84.851 Y53.626 E1.84284
G1 X84.317 Y53.626 E.01675
M73 P23 R9
G1 X126.374 Y95.683 E1.86653
G1 X126.374 Y96.217 E.01675
G1 X83.783 Y53.626 E1.89022
G1 X83.25 Y53.626 E.01675
M73 P24 R9
G1 X126.374 Y96.75 E1.91391
G1 X126.374 Y97.284 E.01675
G1 X82.716 Y53.626 E1.9376
G1 X82.182 Y53.626 E.01675
G1 X126.374 Y97.818 E1.96129
G1 X126.374 Y98.352 E.01675
M73 P25 R9
G1 X81.648 Y53.626 E1.98498
G1 X81.115 Y53.626 E.01675
G1 X126.374 Y98.885 E2.00866
G1 X126.374 Y99.419 E.01675
M73 P26 R9
G1 X80.581 Y53.626 E2.03235
G1 X80.047 Y53.626 E.01675
G1 X126.374 Y99.953 E2.05604
G1 X126.374 Y100.487 E.01675
G1 X79.513 Y53.626 E2.07973
G1 X78.98 Y53.626 E.01675
M73 P27 R9
G1 X126.374 Y101.02 E2.10342
G1 X126.374 Y101.554 E.01675
G1 X78.446 Y53.626 E2.12711
G1 X77.912 Y53.626 E.01675
M73 P28 R9
G1 X126.374 Y102.088 E2.1508
G1 X126.374 Y102.622 E.01675
G1 X77.378 Y53.626 E2.17449
G1 X76.845 Y53.626 E.01675
M73 P29 R9
G1 X126.374 Y103.155 E2.19817
G1 X126.374 Y103.689 E.01675
G1 X76.311 Y53.626 E2.22186
G1 X75.777 Y53.626 E.01675
M73 P30 R9
G1 X126.374 Y104.223 E2.24555
G1 X126.374 Y104.757 E.01675
G1 X75.243 Y53.626 E2.26924
G1 X74.71 Y53.626 E.01675
M73 P31 R8
G1 X126.374 Y105.29 E2.29293
G1 X126.374 Y105.824 E.01675
G1 X74.176 Y53.626 E2.31662
G1 X73.642 Y53.626 E.01675
G1 X126.374 Y106.358 E2.34031
G1 X126.374 Y106.892 E.01675
M73 P32 R8
G1 X73.108 Y53.626 E2.364
G1 X72.575 Y53.626 E.01675
G1 X126.374 Y107.425 E2.38769
G1 X126.374 Y107.959 E.01675
M73 P33 R8
G1 X72.041 Y53.626 E2.41137
G1 X71.507 Y53.626 E.01675
G1 X126.374 Y108.493 E2.43506
G1 X126.374 Y109.027 E.01675
M73 P34 R8
G1 X70.973 Y53.626 E2.45875
G1 X70.44 Y53.626 E.01675
G1 X126.374 Y109.56 E2.48244
G1 X126.374 Y110.094 E.01675
M73 P35 R8
G1 X69.906 Y53.626 E2.50613
G1 X69.372 Y53.626 E.01675
G1 X126.374 Y110.628 E2.52982
G1 X126.374 Y111.162 E.01675
M73 P36 R8
G1 X68.838 Y53.626 E2.55351
G1 X68.305 Y53.626 E.01675
M73 P37 R8
G1 X126.374 Y111.695 E2.5772
G1 X126.374 Y112.229 E.01675
G1 X67.771 Y53.626 E2.60089
G1 X67.237 Y53.626 E.01675
M73 P38 R8
G1 X126.374 Y112.763 E2.62457
G1 X126.374 Y113.297 E.01675
M73 P38 R7
G1 X66.703 Y53.626 E2.64826
G1 X66.17 Y53.626 E.01675
M73 P39 R7
G1 X126.374 Y113.83 E2.67195
G1 X126.374 Y114.364 E.01675
G1 X65.636 Y53.626 E2.69564
G1 X65.102 Y53.626 E.01675
M73 P40 R7
G1 X126.374 Y114.898 E2.71933
G1 X126.374 Y115.432 E.01675
G1 X64.568 Y53.626 E2.74302
G1 X64.035 Y53.626 E.01675
M73 P41 R7
G1 X126.374 Y115.965 E2.76671
G1 X126.374 Y116.499 E.01675
G1 X63.501 Y53.626 E2.7904
G1 X62.967 Y53.626 E.01675
M73 P42 R7
G1 X126.374 Y117.033 E2.81408
G1 X126.374 Y117.567 E.01675
M73 P43 R7
G1 X62.433 Y53.626 E2.83777
G1 X61.9 Y53.626 E.01675
G1 X126.374 Y118.1 E2.86146
G1 X126.374 Y118.634 E.01675
M73 P44 R7
G1 X61.366 Y53.626 E2.88515
G1 X60.832 Y53.626 E.01675
G1 X126.374 Y119.168 E2.90884
G1 X126.374 Y119.702 E.01675
M73 P45 R7
G1 X60.298 Y53.626 E2.93253
G1 X59.765 Y53.626 E.01675
M73 P46 R7
G1 X126.374 Y120.235 E2.95622
G1 X126.374 Y120.769 E.01675
M73 P46 R6
G1 X59.231 Y53.626 E2.97991
G1 X58.697 Y53.626 E.01675
M73 P47 R6
G1 X126.374 Y121.303 E3.0036
G1 X126.374 Y121.837 E.01675
G1 X58.163 Y53.626 E3.02728
G1 X57.63 Y53.626 E.01675
M73 P48 R6
G1 X126.374 Y122.37 E3.05097
G1 X126.374 Y122.904 E.01675
M73 P49 R6
G1 X57.096 Y53.626 E3.07466
G1 X56.562 Y53.626 E.01675
G1 X126.374 Y123.438 E3.09835
G1 X126.374 Y123.972 E.01675
M73 P50 R6
G1 X56.028 Y53.626 E3.12204
G1 X55.495 Y53.626 E.01675
M73 P51 R6
G1 X126.374 Y124.505 E3.14573
G1 X126.374 Y125.039 E.01675
G1 X54.961 Y53.626 E3.16942
G1 X54.427 Y53.626 E.01675
M73 P52 R6
G1 X126.374 Y125.573 E3.19311
G1 X126.374 Y126.107 E.01675
M73 P53 R6
G1 X53.893 Y53.626 E3.2168
G1 X53.626 Y53.626 E.00838
G1 X53.626 Y53.893 E.00837
G1 X126.107 Y126.374 E3.2168
G1 X125.573 Y126.374 E.01675
M73 P54 R5
G1 X53.626 Y54.427 E3.19311
G1 X53.626 Y54.961 E.01675
M73 P55 R5
G1 X125.039 Y126.374 E3.16942
G1 X124.505 Y126.374 E.01675
G1 X53.626 Y55.495 E3.14573
G1 X53.626 Y56.028 E.01675
M73 P56 R5
G1 X123.972 Y126.374 E3.12204
G1 X123.438 Y126.374 E.01675
G1 X53.626 Y56.562 E3.09835
G1 X53.626 Y57.096 E.01675
M73 P57 R5
G1 X122.904 Y126.374 E3.07467
G1 X122.37 Y126.374 E.01675
M73 P58 R5
G1 X53.626 Y57.63 E3.05098
G1 X53.626 Y58.163 E.01675
G1 X121.837 Y126.374 E3.02729
G1 X121.303 Y126.374 E.01675
M73 P59 R5
G1 X53.626 Y58.697 E3.0036
G1 X53.626 Y59.231 E.01675
M73 P60 R5
G1 X120.769 Y126.374 E2.97991
G1 X120.235 Y126.374 E.01675
G1 X53.626 Y59.765 E2.95622
G1 X53.626 Y60.298 E.01675
M73 P61 R5
G1 X119.702 Y126.374 E2.93253
G1 X119.168 Y126.374 E.01675
M73 P61 R4
G1 X53.626 Y60.832 E2.90884
G1 X53.626 Y61.366 E.01675
M73 P62 R4
G1 X118.634 Y126.374 E2.88515
G1 X118.1 Y126.374 E.01675
M73 P63 R4
G1 X53.626 Y61.9 E2.86147
G1 X53.626 Y62.433 E.01675
G1 X117.567 Y126.374 E2.83778
G1 X117.033 Y126.374 E.01675
M73 P64 R4
G1 X53.626 Y62.967 E2.81409
G1 X53.626 Y63.501 E.01675
G1 X116.499 Y126.374 E2.7904
G1 X115.965 Y126.374 E.01675
M73 P65 R4
G1 X53.626 Y64.035 E2.76671
G1 X53.626 Y64.568 E.01675
M73 P66 R4
G1 X115.432 Y126.374 E2.74302
G1 X114.898 Y126.374 E.01675
G1 X53.626 Y65.102 E2.71933
G1 X53.626 Y65.636 E.01675
M73 P67 R4
G1 X114.364 Y126.374 E2.69564
G1 X113.83 Y126.374 E.01675
G1 X53.626 Y66.17 E2.67196
G1 X53.626 Y66.703 E.01675
M73 P68 R4
G1 X113.297 Y126.374 E2.64827
G1 X112.763 Y126.374 E.01675
G1 X53.626 Y67.237 E2.62458
G1 X53.626 Y67.771 E.01675
M73 P69 R3
G1 X112.229 Y126.374 E2.60089
G1 X111.695 Y126.374 E.01675
G1 X53.626 Y68.305 E2.5772
G1 X53.626 Y68.838 E.01675
M73 P70 R3
G1 X111.162 Y126.374 E2.55351
G1 X110.628 Y126.374 E.01675
G1 X53.626 Y69.372 E2.52982
G1 X53.626 Y69.906 E.01675
M73 P71 R3
G1 X110.094 Y126.374 E2.50613
G1 X109.56 Y126.374 E.01675
G1 X53.626 Y70.44 E2.48244
M73 P72 R3
G1 X53.626 Y70.973 E.01675
G1 X109.027 Y126.374 E2.45876
G1 X108.493 Y126.374 E.01675
M73 P73 R3
G1 X53.626 Y71.507 E2.43507
G1 X53.626 Y72.041 E.01675
G1 X107.959 Y126.374 E2.41138
G1 X107.425 Y126.374 E.01675
M73 P74 R3
G1 X53.626 Y72.575 E2.38769
G1 X53.626 Y73.108 E.01675
G1 X106.892 Y126.374 E2.364
G1 X106.358 Y126.374 E.01675
G1 X53.626 Y73.642 E2.34031
M73 P75 R3
G1 X53.626 Y74.176 E.01675
G1 X105.824 Y126.374 E2.31662
G1 X105.29 Y126.374 E.01675
G1 X53.626 Y74.71 E2.29293
G1 X53.626 Y75.243 E.01675
M73 P76 R3
G1 X104.757 Y126.374 E2.26924
G1 X104.223 Y126.374 E.01675
G1 X53.626 Y75.777 E2.24556
G1 X53.626 Y76.311 E.01675
M73 P77 R2
G1 X103.689 Y126.374 E2.22187
G1 X103.155 Y126.374 E.01675
G1 X53.626 Y76.845 E2.19818
G1 X53.626 Y77.378 E.01675
M73 P78 R2
G1 X102.622 Y126.374 E2.17449
G1 X102.088 Y126.374 E.01675
G1 X53.626 Y77.912 E2.1508
G1 X53.626 Y78.446 E.01675
M73 P79 R2
G1 X101.554 Y126.374 E2.12711
G1 X101.02 Y126.374 E.01675
G1 X53.626 Y78.98 E2.10342
G1 X53.626 Y79.513 E.01675
M73 P80 R2
G1 X100.487 Y126.374 E2.07973
G1 X99.953 Y126.374 E.01675
G1 X53.626 Y80.047 E2.05605
G1 X53.626 Y80.581 E.01675
G1 X99.419 Y126.374 E2.03236
G1 X98.885 Y126.374 E.01675
M73 P81 R2
G1 X53.626 Y81.115 E2.00867
G1 X53.626 Y81.648 E.01675
G1 X98.352 Y126.374 E1.98498
G1 X97.818 Y126.374 E.01675
M73 P82 R2
G1 X53.626 Y82.182 E1.96129
G1 X53.626 Y82.716 E.01675
G1 X97.284 Y126.374 E1.9376
G1 X96.75 Y126.374 E.01675
G1 X53.626 Y83.25 E1.91391
G1 X53.626 Y83.783 E.01675
M73 P83 R2
G1 X96.217 Y126.374 E1.89022
G1 X95.683 Y126.374 E.01675
G1 X53.626 Y84.317 E1.86653
G1 X53.626 Y84.851 E.01675
M73 P84 R2
G1 X95.149 Y126.374 E1.84285
G1 X94.615 Y126.374 E.01675
G1 X53.626 Y85.385 E1.81916
G1 X53.626 Y85.918 E.01675
M73 P84 R1
G1 X94.082 Y126.374 E1.79547
G1 X93.548 Y126.374 E.01675
M73 P85 R1
G1 X53.626 Y86.452 E1.77178
G1 X53.626 Y86.986 E.01675
G1 X93.014 Y126.374 E1.74809
G1 X92.48 Y126.374 E.01675
G1 X53.626 Y87.52 E1.7244
G1 X53.626 Y88.053 E.01675
M73 P86 R1
G1 X91.947 Y126.374 E1.70071
G1 X91.413 Y126.374 E.01675
G1 X53.626 Y88.587 E1.67702
G1 X53.626 Y89.121 E.01675
M73 P87 R1
G1 X90.879 Y126.374 E1.65333
G1 X90.345 Y126.374 E.01675
G1 X53.626 Y89.655 E1.62965
G1 X53.626 Y90.188 E.01675
G1 X89.812 Y126.374 E1.60596
G1 X89.278 Y126.374 E.01675
M73 P88 R1
G1 X53.626 Y90.722 E1.58227
G1 X53.626 Y91.256 E.01675
G1 X88.744 Y126.374 E1.55858
G1 X88.21 Y126.374 E.01675
G1 X53.626 Y91.79 E1.53489
G1 X53.626 Y92.323 E.01675
M73 P89 R1
G1 X87.677 Y126.374 E1.5112
G1 X87.143 Y126.374 E.01675
G1 X53.626 Y92.857 E1.48751
G1 X53.626 Y93.391 E.01675
G1 X86.609 Y126.374 E1.46382
G1 X86.075 Y126.374 E.01675
G1 X53.626 Y93.925 E1.44014
G1 X53.626 Y94.458 E.01675
M73 P90 R1
G1 X85.542 Y126.374 E1.41645
G1 X85.008 Y126.374 E.01675
