; generated by PrusaSlicer 2.1.0+602-win64 on 2019-11-22 at 22:51:22 UTC


;
;

;
;

;
;
; 

; external perimeters extrusion width = 0.45mm
; perimeters extrusion width = 0.45mm
; infill extrusion width = 0.45mm
; solid infill extrusion width = 0.45mm
; top infill extrusion width = 0.40mm
; first layer extrusion width = 0.42mm

M73 P0 R92
M201 X1250 Y1250 Z400 E5000 ; sets maximum accelerations, mm/sec^2
M203 X180 Y180 Z12 E80 ; sets maximum feedrates, mm/sec
M204 P1250 R1250 T1250 ; sets acceleration (P, T) and retract acceleration (R), mm/sec^2
M205 X8.00 Y8.00 Z2.00 E10.00 ; sets the jerk limits, mm/sec
M205 S0 T0 ; sets the minimum extruding and travel feed rate, mm/sec
M107
G90 ; use absolute coordinates
M83 ; extruder relative mode
M104 S170 ; set extruder temp for bed leveling
M140 S60 ; set bed temp
M109 R170 ; wait for bed leveling temp
M190 S60 ; wait for bed temp
G28 ; home all without mesh bed level
G29 ; mesh bed leveling 
M104 S215 ; set extruder temp
G92 E0.0
G1 Y-2.0 X179 F2400
G1 Z3 F720
M109 S215 ; wait for extruder temp

; intro line
G1 X170 F1000
G1 Z0.2 F720
G1 X110.0 E8.0 F900
M73 P0 R92
G1 X40.0 E10.0 F700
G92 E0.0

M221 S95 ; set flow
G21 ; set units to millimeters
G90 ; use absolute coordinates
M83 ; use relative distances for extrusion
M900 K0.2 ; Filament gcode
;BEFORE_LAYER_CHANGE
G92 E0.0
;0.2


G1 Z0.200 F9000.000
;AFTER_LAYER_CHANGE
;0.2
G1 E-3.20000 F4200.00000
G1 Z0.400 F9000.000
G1 X71.712 Y69.695
G1 Z0.200
G1 E3.20000 F2400.00000
M204 S800
G1 F1200.000
G1 X81.521 Y64.024 E0.35527
G1 X83.782 Y63.387 E0.07366
G1 X85.845 Y62.988 E0.06589
G1 X87.930 Y62.748 E0.06578
G1 X90.004 Y62.670 E0.06509
G1 X92.085 Y62.750 E0.06528
G1 X94.378 Y63.024 E0.07242
G1 X96.993 Y63.580 E0.08382
G1 X98.716 Y64.126 E0.05667
G1 X108.049 Y69.514 E0.33790
G1 X109.383 Y70.733 E0.05665
G1 X111.172 Y72.720 E0.08385
G1 X113.094 Y75.386 E0.10304
G1 X114.565 Y78.025 E0.09475
G1 X115.773 Y80.908 E0.09798
G1 X116.512 Y83.365 E0.08045
G1 X116.776 Y84.806 E0.04594
G1 X116.777 Y95.116 E0.32325
G1 X116.726 Y95.699 E0.01834
G1 X116.510 Y96.643 E0.03038
G1 X115.777 Y99.081 E0.07981
G1 X114.717 Y101.659 E0.08740
G1 X113.735 Y103.548 E0.06675
G1 X112.570 Y105.412 E0.06892
G1 X111.323 Y107.096 E0.06569
G1 X109.941 Y108.689 E0.06614
G1 X108.288 Y110.305 E0.07247
G1 X98.479 Y115.976 E0.35527
G1 X96.218 Y116.613 E0.07366
G1 X94.155 Y117.012 E0.06589
G1 X92.070 Y117.252 E0.06578
G1 X90.000 Y117.330 E0.06495
G1 X87.911 Y117.250 E0.06556
G1 X85.626 Y116.976 E0.07214
G1 X83.007 Y116.420 E0.08396
G1 X81.284 Y115.874 E0.05667
G1 X71.951 Y110.486 E0.33789
G1 X70.617 Y109.267 E0.05666
G1 X68.828 Y107.280 E0.08385
G1 X66.906 Y104.614 E0.10304
G1 X65.435 Y101.974 E0.09475
G1 X64.227 Y99.092 E0.09798
G1 X63.488 Y96.635 E0.08046
G1 X63.224 Y95.194 E0.04594
G1 X63.223 Y84.884 E0.32325
G1 X63.274 Y84.301 E0.01834
G1 X63.490 Y83.357 E0.03038
G1 X64.223 Y80.919 E0.07981
G1 X65.283 Y78.341 E0.08740
G1 X66.265 Y76.452 E0.06675
G1 X67.430 Y74.588 E0.06892
G1 X68.677 Y72.904 E0.06570
G1 X70.059 Y71.311 E0.06613
G1 X71.669 Y69.737 E0.07059
M204 S1250
G1 E-2.24000 F4200.00000
G1 F7200.000
G1 X73.092 Y68.912 E-0.91200
G1 E-0.04800 F4200.00000
G1 Z0.400 F9000.000
G1 X80.205 Y79.099
G1 Z0.200
G1 E3.20000 F2400.00000
M204 S800
G1 F1200.000
G1 X81.107 Y78.349 E0.03677
G1 X81.624 Y77.972 E0.02008
G1 X82.166 Y77.612 E0.02041
G1 X82.736 Y77.269 E0.02084
G1 X83.498 Y76.864 E0.02707
G1 X84.107 Y76.579 E0.02108
G1 X84.870 Y76.272 E0.02577
G1 X85.369 Y76.093 E0.01664
G1 X86.024 Y75.893 E0.02145
G1 X86.691 Y75.722 E0.02160
G1 X87.492 Y75.559 E0.02564
G1 X88.176 Y75.456 E0.02169
G1 X88.972 Y75.379 E0.02507
G1 X89.662 Y75.346 E0.02168
G1 X90.355 Y75.347 E0.02170
G1 X91.049 Y75.380 E0.02180
G1 X91.830 Y75.457 E0.02462
G1 X92.519 Y75.561 E0.02183
G1 X93.202 Y75.696 E0.02184
G1 X93.880 Y75.865 E0.02191
G1 X94.622 Y76.090 E0.02431
G1 X95.280 Y76.327 E0.02193
G1 X95.926 Y76.594 E0.02193
G1 X96.561 Y76.893 E0.02199
G1 X97.238 Y77.255 E0.02408
G1 X97.840 Y77.616 E0.02201
G1 X98.424 Y78.005 E0.02200
G1 X98.990 Y78.423 E0.02205
G1 X99.579 Y78.906 E0.02391
G1 X100.101 Y79.379 E0.02207
G1 X100.599 Y79.876 E0.02207
G1 X101.108 Y80.438 E0.02378
G1 X101.555 Y80.983 E0.02209
G1 X101.974 Y81.547 E0.02204
G1 X102.277 Y81.993 E0.01690
G1 X102.876 Y82.997 E0.03665
G1 X103.636 Y84.440 E0.05114
G1 X103.917 Y85.044 E0.02090
G1 X104.184 Y85.698 E0.02214
G1 X104.437 Y86.414 E0.02381
G1 X104.643 Y87.103 E0.02255
G1 X104.819 Y87.819 E0.02314
G1 X104.961 Y88.555 E0.02349
G1 X105.052 Y89.185 E0.01997
G1 X105.128 Y89.937 E0.02367
G1 X105.165 Y90.707 E0.02418
G1 X105.143 Y91.928 E0.03830
G1 X105.064 Y92.823 E0.02818
G1 X104.954 Y93.596 E0.02447
G1 X104.803 Y94.365 E0.02458
G1 X104.613 Y95.126 E0.02460
G1 X104.458 Y95.649 E0.01708
G1 X104.204 Y96.393 E0.02467
G1 X103.908 Y97.131 E0.02490
G1 X103.575 Y97.854 E0.02497
G1 X103.166 Y98.628 E0.02746
G1 X102.756 Y99.314 E0.02503
G1 X102.312 Y99.978 E0.02506
G1 X101.830 Y100.624 E0.02525
G1 X100.987 Y101.612 E0.04074
G1 X100.423 Y102.191 E0.02534
G1 X99.833 Y102.738 E0.02522
G1 X99.170 Y103.291 E0.02709
G1 X98.525 Y103.775 E0.02525
G1 X97.854 Y104.228 E0.02539
G1 X96.980 Y104.749 E0.03189
G1 X96.375 Y105.068 E0.02146
G1 X95.796 Y105.344 E0.02011
G1 X95.054 Y105.657 E0.02523
G1 X93.973 Y105.967 E0.03527
G1 X93.314 Y106.116 E0.02119
G1 X92.636 Y106.241 E0.02162
G1 X91.941 Y106.338 E0.02202
G1 X91.231 Y106.407 E0.02235
G1 X90.281 Y106.451 E0.02984
G1 X89.573 Y106.448 E0.02219
G1 X88.862 Y106.414 E0.02230
G1 X88.150 Y106.349 E0.02243
G1 X87.437 Y106.253 E0.02256
G1 X86.725 Y106.124 E0.02269
G1 X85.876 Y105.928 E0.02731
G1 X85.181 Y105.732 E0.02264
G1 X84.495 Y105.505 E0.02267
G1 X83.817 Y105.247 E0.02273
G1 X83.150 Y104.960 E0.02279
G1 X82.494 Y104.641 E0.02285
G1 X81.841 Y104.287 E0.02329
G1 X80.813 Y103.650 E0.03791
G1 X80.263 Y103.263 E0.02111
G1 X79.783 Y102.857 E0.01971
G1 X78.803 Y101.893 E0.04310
G1 X77.962 Y100.918 E0.04037
G1 X77.358 Y100.108 E0.03167
G1 X76.938 Y99.476 E0.02379
G1 X76.542 Y98.815 E0.02417
G1 X76.095 Y97.965 E0.03012
G1 X75.770 Y97.258 E0.02439
G1 X75.478 Y96.530 E0.02460
G1 X75.222 Y95.785 E0.02470
G1 X75.049 Y95.197 E0.01922
G1 X74.858 Y94.431 E0.02475
G1 X74.705 Y93.651 E0.02493
G1 X74.592 Y92.861 E0.02502
G1 X74.520 Y92.067 E0.02499
G1 X74.493 Y91.498 E0.01785
G1 X74.490 Y90.700 E0.02501
G1 X74.529 Y89.896 E0.02525
G1 X74.622 Y89.003 E0.02816
G1 X74.750 Y88.204 E0.02536
G1 X74.920 Y87.413 E0.02537
G1 X75.132 Y86.635 E0.02528
G1 X75.293 Y86.127 E0.01671
G1 X75.572 Y85.369 E0.02533
G1 X75.894 Y84.622 E0.02551
G1 X76.255 Y83.896 E0.02543
G1 X76.507 Y83.440 E0.01631
G1 X76.932 Y82.745 E0.02556
G1 X77.657 Y81.728 E0.03916
G1 X78.307 Y80.949 E0.03180
G1 X78.701 Y80.525 E0.01816
G1 X79.107 Y80.122 E0.01792
G1 X80.161 Y79.140 E0.04518
M204 S1250
G1 X80.418 Y79.416 F9000.000
M204 S800
G1 F1200.000
G1 X81.339 Y78.647 E0.03760
G1 X81.840 Y78.281 E0.01944
G1 X82.368 Y77.930 E0.01988
G1 X82.922 Y77.598 E0.02027
G1 X83.667 Y77.201 E0.02646
G1 X84.258 Y76.925 E0.02046
G1 X85.004 Y76.624 E0.02521
G1 X85.488 Y76.451 E0.01613
G1 X86.126 Y76.256 E0.02091
G1 X86.775 Y76.090 E0.02103
G1 X87.558 Y75.930 E0.02503
G1 X88.222 Y75.831 E0.02107
G1 X88.999 Y75.755 E0.02447
G1 X89.671 Y75.723 E0.02110
G1 X90.345 Y75.724 E0.02114
G1 X91.021 Y75.756 E0.02122
G1 X91.784 Y75.832 E0.02402
G1 X92.454 Y75.932 E0.02125
G1 X93.119 Y76.064 E0.02127
G1 X93.779 Y76.229 E0.02133
G1 X94.503 Y76.448 E0.02371
G1 X95.144 Y76.678 E0.02135
G1 X95.774 Y76.939 E0.02136
G1 X96.392 Y77.230 E0.02141
G1 X97.052 Y77.583 E0.02349
G1 X97.639 Y77.934 E0.02143
G1 X98.207 Y78.314 E0.02143
G1 X98.758 Y78.721 E0.02147
G1 X99.333 Y79.192 E0.02332
G1 X99.841 Y79.652 E0.02149
G1 X100.326 Y80.136 E0.02149
G1 X100.823 Y80.684 E0.02319
G1 X101.258 Y81.215 E0.02152
G1 X101.667 Y81.765 E0.02150
G1 X101.959 Y82.196 E0.01631
G1 X102.547 Y83.181 E0.03599
G1 X103.298 Y84.607 E0.05053
G1 X103.571 Y85.195 E0.02033
G1 X103.831 Y85.832 E0.02157
G1 X104.078 Y86.531 E0.02323
G1 X104.279 Y87.202 E0.02196
G1 X104.451 Y87.900 E0.02254
G1 X104.589 Y88.618 E0.02292
G1 X104.678 Y89.231 E0.01944
G1 X104.751 Y89.964 E0.02310
G1 X104.788 Y90.713 E0.02348
G1 X104.766 Y91.908 E0.03749
G1 X104.690 Y92.780 E0.02745
G1 X104.582 Y93.533 E0.02384
G1 X104.435 Y94.283 E0.02397
G1 X104.249 Y95.027 E0.02404
G1 X104.099 Y95.534 E0.01658
G1 X103.850 Y96.262 E0.02412
G1 X103.562 Y96.982 E0.02430
G1 X103.236 Y97.687 E0.02436
G1 X102.837 Y98.444 E0.02683
G1 X102.438 Y99.112 E0.02441
G1 X102.004 Y99.760 E0.02446
G1 X101.535 Y100.388 E0.02457
G1 X100.708 Y101.358 E0.03996
G1 X100.159 Y101.921 E0.02465
G1 X99.584 Y102.454 E0.02462
G1 X98.935 Y102.996 E0.02648
G1 X98.307 Y103.468 E0.02465
G1 X97.652 Y103.910 E0.02476
G1 X96.796 Y104.420 E0.03126
G1 X96.206 Y104.731 E0.02091
G1 X95.642 Y105.000 E0.01959
G1 X94.929 Y105.300 E0.02425
G1 X93.879 Y105.601 E0.03424
G1 X93.238 Y105.747 E0.02061
G1 X92.576 Y105.869 E0.02112
G1 X91.896 Y105.964 E0.02151
G1 X91.204 Y106.031 E0.02180
G1 X90.273 Y106.074 E0.02924
G1 X89.583 Y106.071 E0.02164
G1 X88.889 Y106.038 E0.02179
G1 X88.192 Y105.974 E0.02191
G1 X87.496 Y105.880 E0.02204
G1 X86.801 Y105.754 E0.02215
G1 X85.970 Y105.562 E0.02675
G1 X85.292 Y105.371 E0.02209
G1 X84.621 Y105.150 E0.02215
G1 X83.959 Y104.898 E0.02221
G1 X83.307 Y104.617 E0.02226
G1 X82.666 Y104.306 E0.02232
G1 X82.030 Y103.961 E0.02268
G1 X81.021 Y103.335 E0.03723
G1 X80.493 Y102.964 E0.02024
G1 X80.034 Y102.576 E0.01887
G1 X79.078 Y101.635 E0.04204
G1 X78.258 Y100.685 E0.03934
G1 X77.666 Y99.891 E0.03106
G1 X77.257 Y99.275 E0.02319
G1 X76.871 Y98.630 E0.02356
G1 X76.434 Y97.798 E0.02948
G1 X76.117 Y97.109 E0.02378
G1 X75.832 Y96.398 E0.02401
G1 X75.581 Y95.670 E0.02414
G1 X75.413 Y95.098 E0.01871
G1 X75.226 Y94.349 E0.02419
G1 X75.077 Y93.588 E0.02433
G1 X74.967 Y92.817 E0.02441
G1 X74.897 Y92.041 E0.02444
G1 X74.870 Y91.488 E0.01734
G1 X74.867 Y90.709 E0.02444
G1 X74.905 Y89.925 E0.02461
G1 X74.996 Y89.052 E0.02751
G1 X75.120 Y88.274 E0.02472
G1 X75.287 Y87.503 E0.02474
G1 X75.494 Y86.742 E0.02472
G1 X75.650 Y86.250 E0.01620
G1 X75.923 Y85.509 E0.02474
G1 X76.236 Y84.781 E0.02486
G1 X76.590 Y84.071 E0.02486
G1 X76.833 Y83.630 E0.01580
G1 X77.247 Y82.953 E0.02488
G1 X77.955 Y81.958 E0.03830
G1 X78.590 Y81.198 E0.03103
G1 X78.972 Y80.787 E0.01761
G1 X79.368 Y80.394 E0.01750
G1 X80.374 Y79.456 E0.04311
M204 S1250
G1 X80.341 Y79.023 F9000.000
G1 E-2.24000 F4200.00000
G1 F7200.000
G1 X81.339 Y78.647 E-0.69784
G1 X81.651 Y78.419 E-0.21416
G1 E-0.04800 F4200.00000
G1 Z0.400 F9000.000
G1 X75.893 Y71.976
G1 Z0.200
G1 E3.20000 F2400.00000
M204 S800
G1 F1200.000
G1 X81.446 Y68.770 E0.20105
G1 X82.041 Y68.539 E0.02002
G1 X83.108 Y68.171 E0.03538
G1 X83.905 Y67.936 E0.02606
G1 X84.811 Y67.705 E0.02931
G1 X85.688 Y67.519 E0.02812
G1 X86.527 Y67.374 E0.02668
G1 X87.376 Y67.260 E0.02687
G1 X88.232 Y67.178 E0.02697
G1 X89.119 Y67.126 E0.02785
G1 X90.018 Y67.109 E0.02820
G1 X90.881 Y67.126 E0.02706
G1 X91.720 Y67.174 E0.02636
G1 X92.596 Y67.257 E0.02757
G1 X93.473 Y67.374 E0.02776
G1 X94.359 Y67.528 E0.02818
G1 X95.271 Y67.725 E0.02926
G1 X96.000 Y67.910 E0.02360
G1 X96.784 Y68.138 E0.02558
G1 X97.649 Y68.425 E0.02857
G1 X98.556 Y68.771 E0.03043
G1 X104.107 Y71.976 E0.20099
G1 X104.860 Y72.589 E0.03043
G1 X105.541 Y73.194 E0.02857
G1 X106.131 Y73.758 E0.02558
G1 X106.655 Y74.298 E0.02360
G1 X107.282 Y74.989 E0.02926
G1 X107.858 Y75.679 E0.02818
G1 X108.398 Y76.381 E0.02777
G1 X108.896 Y77.080 E0.02690
G1 X109.369 Y77.800 E0.02702
G1 X109.833 Y78.571 E0.02821
G1 X110.250 Y79.326 E0.02706
G1 X110.628 Y80.077 E0.02635
G1 X111.005 Y80.903 E0.02848
G1 X111.331 Y81.695 E0.02686
G1 X111.625 Y82.494 E0.02668
G1 X111.903 Y83.347 E0.02814
G1 X112.131 Y84.151 E0.02621
G1 X112.351 Y85.057 E0.02924
G1 X112.509 Y85.835 E0.02490
G1 X112.663 Y86.795 E0.03047
G1 X112.663 Y93.205 E0.20099
G1 X112.509 Y94.165 E0.03047
G1 X112.351 Y94.943 E0.02490
G1 X112.131 Y95.848 E0.02922
G1 X111.886 Y96.705 E0.02794
G1 X111.641 Y97.461 E0.02490
G1 X111.346 Y98.264 E0.02683
G1 X111.005 Y99.098 E0.02824
G1 X110.637 Y99.904 E0.02779
G1 X110.241 Y100.690 E0.02761
G1 X109.815 Y101.461 E0.02761
G1 X109.369 Y102.200 E0.02706
G1 X108.908 Y102.903 E0.02635
G1 X108.381 Y103.643 E0.02848
G1 X107.858 Y104.321 E0.02685
G1 X107.282 Y105.011 E0.02818
G1 X106.655 Y105.702 E0.02926
G1 X106.131 Y106.242 E0.02360
G1 X105.541 Y106.806 E0.02558
G1 X104.860 Y107.411 E0.02857
G1 X104.107 Y108.024 E0.03043
G1 X98.554 Y111.230 E0.20105
G1 X97.959 Y111.461 E0.02002
G1 X96.892 Y111.829 E0.03538
G1 X96.095 Y112.064 E0.02606
G1 X95.189 Y112.295 E0.02931
G1 X94.312 Y112.481 E0.02812
G1 X93.473 Y112.626 E0.02668
G1 X92.624 Y112.740 E0.02687
G1 X91.768 Y112.822 E0.02697
G1 X90.881 Y112.874 E0.02786
G1 X90.000 Y112.891 E0.02762
G1 X89.119 Y112.874 E0.02763
G1 X88.258 Y112.824 E0.02702
G1 X87.405 Y112.743 E0.02690
G1 X86.527 Y112.626 E0.02777
G1 X85.641 Y112.472 E0.02818
G1 X84.729 Y112.275 E0.02926
G1 X84.000 Y112.090 E0.02360
G1 X83.216 Y111.862 E0.02558
G1 X82.351 Y111.575 E0.02857
G1 X81.444 Y111.229 E0.03043
G1 X75.893 Y108.024 E0.20099
G1 X75.140 Y107.411 E0.03043
G1 X74.459 Y106.806 E0.02857
G1 X73.869 Y106.242 E0.02558
G1 X73.345 Y105.702 E0.02360
G1 X72.718 Y105.011 E0.02926
G1 X72.142 Y104.321 E0.02818
G1 X71.602 Y103.619 E0.02777
G1 X71.104 Y102.920 E0.02690
G1 X70.631 Y102.200 E0.02702
G1 X70.167 Y101.429 E0.02821
G1 X69.750 Y100.674 E0.02706
G1 X69.372 Y99.923 E0.02635
G1 X68.995 Y99.097 E0.02848
G1 X68.669 Y98.305 E0.02686
G1 X68.375 Y97.506 E0.02668
G1 X68.097 Y96.653 E0.02814
G1 X67.869 Y95.849 E0.02621
G1 X67.649 Y94.943 E0.02924
G1 X67.491 Y94.165 E0.02490
G1 X67.337 Y93.205 E0.03047
G1 X67.337 Y86.795 E0.20099
G1 X67.491 Y85.835 E0.03047
G1 X67.649 Y85.057 E0.02490
G1 X67.869 Y84.152 E0.02922
G1 X68.114 Y83.295 E0.02794
G1 X68.359 Y82.539 E0.02490
G1 X68.654 Y81.736 E0.02683
G1 X68.995 Y80.902 E0.02824
G1 X69.363 Y80.096 E0.02779
G1 X69.759 Y79.310 E0.02761
G1 X70.185 Y78.539 E0.02761
G1 X70.631 Y77.800 E0.02706
G1 X71.092 Y77.097 E0.02635
G1 X71.619 Y76.357 E0.02848
G1 X72.142 Y75.679 E0.02685
G1 X72.718 Y74.989 E0.02818
G1 X73.345 Y74.298 E0.02926
G1 X73.869 Y73.758 E0.02360
G1 X74.459 Y73.194 E0.02558
G1 X75.140 Y72.589 E0.02857
G1 X75.846 Y72.014 E0.02855
M204 S1250
G1 X75.608 Y71.721 F9000.000
M204 S800
G1 F1200.000
G1 X75.678 Y71.664 E0.00283
G1 X81.282 Y68.429 E0.20290
G1 X81.911 Y68.185 E0.02115
G1 X82.993 Y67.812 E0.03587
G1 X83.805 Y67.572 E0.02655
G1 X84.725 Y67.338 E0.02977
G1 X85.617 Y67.149 E0.02858
G1 X86.469 Y67.001 E0.02712
G1 X87.333 Y66.885 E0.02731
G1 X88.203 Y66.802 E0.02741
G1 X89.104 Y66.749 E0.02831
G1 X90.018 Y66.732 E0.02866
G1 X90.896 Y66.749 E0.02751
G1 X91.749 Y66.798 E0.02680
G1 X92.638 Y66.882 E0.02801
G1 X93.530 Y67.001 E0.02822
G1 X94.431 Y67.158 E0.02865
G1 X95.357 Y67.358 E0.02971
G1 X96.099 Y67.546 E0.02402
G1 X96.896 Y67.778 E0.02601
G1 X97.775 Y68.070 E0.02905
G1 X98.718 Y68.429 E0.03164
G1 X104.322 Y71.664 E0.20288
G1 X105.105 Y72.301 E0.03164
G1 X105.797 Y72.917 E0.02905
G1 X106.396 Y73.491 E0.02601
G1 X106.930 Y74.040 E0.02402
G1 X107.566 Y74.742 E0.02971
G1 X108.152 Y75.443 E0.02865
G1 X108.701 Y76.156 E0.02822
G1 X109.207 Y76.867 E0.02734
G1 X109.688 Y77.599 E0.02747
G1 X110.160 Y78.382 E0.02866
G1 X110.583 Y79.150 E0.02751
G1 X110.968 Y79.914 E0.02680
G1 X111.351 Y80.753 E0.02893
G1 X111.683 Y81.558 E0.02731
G1 X111.981 Y82.370 E0.02712
G1 X112.263 Y83.237 E0.02859
G1 X112.495 Y84.055 E0.02666
G1 X112.719 Y84.975 E0.02969
G1 X112.880 Y85.768 E0.02537
G1 X113.040 Y86.765 E0.03165
G1 X113.040 Y93.235 E0.20288
G1 X112.880 Y94.232 E0.03165
G1 X112.719 Y95.025 E0.02537
G1 X112.496 Y95.945 E0.02968
G1 X112.247 Y96.815 E0.02838
G1 X111.997 Y97.584 E0.02533
G1 X111.698 Y98.401 E0.02728
G1 X111.351 Y99.248 E0.02870
G1 X110.977 Y100.067 E0.02825
G1 X110.575 Y100.867 E0.02807
G1 X110.141 Y101.650 E0.02806
G1 X109.688 Y102.401 E0.02751
G1 X109.219 Y103.115 E0.02680
G1 X108.684 Y103.867 E0.02893
G1 X108.152 Y104.557 E0.02731
G1 X107.566 Y105.258 E0.02865
G1 X106.930 Y105.960 E0.02971
G1 X106.396 Y106.509 E0.02402
