; generated by PrusaSlicer 2.1.0+win64 on 2019-11-21 at 23:27:03 UTC


;
;

;
;

;
;
; 

; external perimeters extrusion width = 0.45mm
; perimeters extrusion width = 0.45mm
; infill extrusion width = 0.45mm
; solid infill extrusion width = 0.45mm
; top infill extrusion width = 0.40mm
; first layer extrusion width = 0.42mm

M73 P0 R23
M201 X1250 Y1250 Z400 E5000 ; sets maximum accelerations, mm/sec^2
M203 X180 Y180 Z12 E80 ; sets maximum feedrates, mm/sec
M204 P1250 R1250 T1250 ; sets acceleration (P, T) and retract acceleration (R), mm/sec^2
M205 X8.00 Y8.00 Z2.00 E10.00 ; sets the jerk limits, mm/sec
M205 S0 T0 ; sets the minimum extruding and travel feed rate, mm/sec
M107
G90 ; use absolute coordinates
M83 ; extruder relative mode
M104 S170 ; set extruder temp for bed leveling
M140 S60 ; set bed temp
M109 R170 ; wait for bed leveling temp
M190 S60 ; wait for bed temp
G28 ; home all without mesh bed level
G29 ; mesh bed leveling 
M104 S215 ; set extruder temp
G92 E0.0
G1 Y-2.0 X179 F2400
G1 Z3 F720
M109 S215 ; wait for extruder temp

; intro line
G1 X170 F1000
G1 Z0.2 F720
G1 X110.0 E8.0 F900
M73 P0 R23
G1 X40.0 E10.0 F700
G92 E0.0

M221 S95 ; set flow
G21 ; set units to millimeters
G90 ; use absolute coordinates
M83 ; use relative distances for extrusion
M900 K0.2 ; Filament gcode
;BEFORE_LAYER_CHANGE
G92 E0.0
;0.2


G1 Z0.200 F9000.000
;AFTER_LAYER_CHANGE
;0.2
G1 E-3.20000 F4200.00000
G1 Z0.400 F9000.000
G1 X43.105 Y78.383
G1 Z0.200
G1 E3.20000 F2400.00000
M204 S800
G1 F1200
G1 X43.744 Y78.119 E0.02168
G1 X44.247 Y78.060 E0.01589
G1 X135.754 Y78.060 E2.86915
G1 X136.581 Y78.224 E0.02642
G1 X137.282 Y78.685 E0.02631
G1 X137.759 Y79.379 E0.02642
G1 X137.939 Y80.202 E0.02642
G1 X137.933 Y99.919 E0.61821
G1 X137.773 Y100.589 E0.02157
G1 X137.413 Y101.175 E0.02157
G1 X136.889 Y101.621 E0.02157
G1 X136.256 Y101.881 E0.02146
G1 X135.753 Y101.940 E0.01589
G1 X44.213 Y101.940 E2.87018
G1 X43.504 Y101.809 E0.02259
G1 X42.876 Y101.456 E0.02259
G1 X42.399 Y100.921 E0.02247
G1 X42.120 Y100.257 E0.02259
G1 X42.061 Y99.757 E0.01578
G1 X42.067 Y80.088 E0.61672
G1 X42.224 Y79.418 E0.02157
G1 X42.582 Y78.831 E0.02157
G1 X43.059 Y78.422 E0.01969
M204 S1250
G1 E-3.20000 F4200.00000
G1 Z0.400 F9000.000
G1 X44.836 Y80.836
G1 Z0.200
G1 E3.20000 F2400.00000
M204 S800
G1 F1200
G1 X135.164 Y80.836 E2.83215
G1 X135.164 Y99.164 E0.57469
G1 X44.836 Y99.164 E2.83215
G1 X44.836 Y80.896 E0.57281
M204 S1250
G1 X44.459 Y80.458 F9000.000
M204 S800
G1 F1200
G1 X135.541 Y80.458 E2.85580
G1 X135.541 Y99.541 E0.59833
G1 X44.459 Y99.541 E2.85580
G1 X44.459 Y80.518 E0.59645
M204 S1250
G1 X44.858 Y80.486 F9000.000
G1 E-3.20000 F4200.00000
G1 Z0.400 F9000.000
G1 X44.949 Y98.289
G1 Z0.200
G1 E3.20000 F2400.00000
M204 S800
G1 F1200
G1 X45.542 Y98.882 E0.02629
G1 X46.076 Y98.882 E0.01673
G1 X45.119 Y97.925 E0.04242
G1 X45.119 Y97.392 E0.01673
G1 X46.609 Y98.882 E0.06608
G1 X47.142 Y98.882 E0.01673
G1 X45.119 Y96.858 E0.08973
G1 X45.119 Y96.325 E0.01673
G1 X47.676 Y98.882 E0.11339
G1 X48.209 Y98.882 E0.01673
G1 X45.119 Y95.792 E0.13705
G1 X45.119 Y95.258 E0.01673
G1 X48.742 Y98.882 E0.16070
G1 X49.276 Y98.882 E0.01673
G1 X45.119 Y94.725 E0.18436
G1 X45.119 Y94.191 E0.01673
G1 X49.809 Y98.882 E0.20802
G1 X50.343 Y98.882 E0.01673
G1 X45.119 Y93.658 E0.23168
G1 X45.119 Y93.125 E0.01673
G1 X50.876 Y98.882 E0.25533
G1 X51.409 Y98.882 E0.01673
G1 X45.119 Y92.591 E0.27899
G1 X45.119 Y92.058 E0.01673
G1 X51.943 Y98.882 E0.30265
G1 X52.476 Y98.882 E0.01673
G1 X45.119 Y91.524 E0.32630
G1 X45.119 Y90.991 E0.01673
G1 X53.010 Y98.882 E0.34996
G1 X53.543 Y98.882 E0.01673
G1 X45.119 Y90.458 E0.37362
G1 X45.119 Y89.924 E0.01673
G1 X54.076 Y98.882 E0.39727
G1 X54.610 Y98.882 E0.01673
G1 X45.119 Y89.391 E0.42093
G1 X45.119 Y88.858 E0.01673
G1 X55.143 Y98.882 E0.44459
G1 X55.677 Y98.882 E0.01673
G1 X45.119 Y88.324 E0.46825
G1 X45.119 Y87.791 E0.01673
G1 X56.210 Y98.882 E0.49190
G1 X56.743 Y98.882 E0.01673
G1 X45.119 Y87.257 E0.51556
G1 X45.119 Y86.724 E0.01673
G1 X57.277 Y98.882 E0.53922
G1 X57.810 Y98.882 E0.01673
G1 X45.119 Y86.191 E0.56287
G1 X45.119 Y85.657 E0.01673
G1 X58.344 Y98.882 E0.58653
G1 X58.877 Y98.882 E0.01673
G1 X45.119 Y85.124 E0.61019
G1 X45.119 Y84.590 E0.01673
G1 X59.410 Y98.882 E0.63385
G1 X59.944 Y98.882 E0.01673
G1 X45.119 Y84.057 E0.65750
G1 X45.119 Y83.524 E0.01673
G1 X60.477 Y98.882 E0.68116
G1 X61.011 Y98.882 E0.01673
G1 X45.119 Y82.990 E0.70482
G1 X45.119 Y82.457 E0.01673
M73 P4 R22
G1 X61.544 Y98.882 E0.72847
G1 X62.077 Y98.882 E0.01673
G1 X45.119 Y81.923 E0.75213
G1 X45.119 Y81.390 E0.01673
G1 X62.611 Y98.882 E0.77579
G1 X63.144 Y98.882 E0.01673
G1 X45.381 Y81.118 E0.78784
G1 X45.914 Y81.118 E0.01673
G1 X63.678 Y98.882 E0.78784
G1 X64.211 Y98.882 E0.01673
G1 X46.448 Y81.118 E0.78784
G1 X46.981 Y81.118 E0.01673
G1 X64.744 Y98.882 E0.78784
G1 X65.278 Y98.882 E0.01673
G1 X47.514 Y81.118 E0.78784
G1 X48.048 Y81.118 E0.01673
G1 X65.811 Y98.882 E0.78784
G1 X66.345 Y98.882 E0.01673
G1 X48.581 Y81.118 E0.78784
G1 X49.115 Y81.118 E0.01673
G1 X66.878 Y98.882 E0.78784
G1 X67.411 Y98.882 E0.01673
G1 X49.648 Y81.118 E0.78784
G1 X50.181 Y81.118 E0.01673
G1 X67.945 Y98.882 E0.78784
G1 X68.478 Y98.882 E0.01673
G1 X50.715 Y81.118 E0.78784
G1 X51.248 Y81.118 E0.01673
G1 X69.011 Y98.882 E0.78784
G1 X69.545 Y98.882 E0.01673
G1 X51.782 Y81.118 E0.78784
G1 X52.315 Y81.118 E0.01673
G1 X70.078 Y98.882 E0.78784
G1 X70.612 Y98.882 E0.01673
G1 X52.848 Y81.118 E0.78784
G1 X53.382 Y81.118 E0.01673
G1 X71.145 Y98.882 E0.78784
G1 X71.678 Y98.882 E0.01673
G1 X53.915 Y81.118 E0.78784
G1 X54.449 Y81.118 E0.01673
G1 X72.212 Y98.882 E0.78784
G1 X72.745 Y98.882 E0.01673
G1 X54.982 Y81.118 E0.78784
G1 X55.515 Y81.118 E0.01673
G1 X73.279 Y98.882 E0.78784
G1 X73.812 Y98.882 E0.01673
G1 X56.049 Y81.118 E0.78784
G1 X56.582 Y81.118 E0.01673
G1 X74.345 Y98.882 E0.78784
G1 X74.879 Y98.882 E0.01673
G1 X57.116 Y81.118 E0.78784
G1 X57.649 Y81.118 E0.01673
G1 X75.412 Y98.882 E0.78784
G1 X75.946 Y98.882 E0.01673
G1 X58.182 Y81.118 E0.78784
G1 X58.716 Y81.118 E0.01673
G1 X76.479 Y98.882 E0.78784
G1 X77.012 Y98.882 E0.01673
G1 X59.249 Y81.118 E0.78784
G1 X59.783 Y81.118 E0.01673
G1 X77.546 Y98.882 E0.78784
G1 X78.079 Y98.882 E0.01673
G1 X60.316 Y81.118 E0.78784
G1 X60.849 Y81.118 E0.01673
G1 X78.613 Y98.882 E0.78784
G1 X79.146 Y98.882 E0.01673
G1 X61.383 Y81.118 E0.78784
G1 X61.916 Y81.118 E0.01673
G1 X79.679 Y98.882 E0.78784
G1 X80.213 Y98.882 E0.01673
G1 X62.450 Y81.118 E0.78784
G1 X62.983 Y81.118 E0.01673
G1 X80.746 Y98.882 E0.78784
G1 X81.280 Y98.882 E0.01673
G1 X63.516 Y81.118 E0.78784
G1 X64.050 Y81.118 E0.01673
G1 X81.813 Y98.882 E0.78784
G1 X82.346 Y98.882 E0.01673
G1 X64.583 Y81.118 E0.78784
G1 X65.116 Y81.118 E0.01673
G1 X82.880 Y98.882 E0.78784
G1 X83.413 Y98.882 E0.01673
G1 X65.650 Y81.118 E0.78784
G1 X66.183 Y81.118 E0.01673
G1 X83.947 Y98.882 E0.78784
G1 X84.480 Y98.882 E0.01673
G1 X66.717 Y81.118 E0.78784
G1 X67.250 Y81.118 E0.01673
G1 X85.013 Y98.882 E0.78784
G1 X85.547 Y98.882 E0.01673
G1 X67.783 Y81.118 E0.78784
G1 X68.317 Y81.118 E0.01673
G1 X86.080 Y98.882 E0.78784
M73 P9 R21
G1 X86.614 Y98.882 E0.01673
G1 X68.850 Y81.118 E0.78784
G1 X69.384 Y81.118 E0.01673
G1 X87.147 Y98.882 E0.78784
G1 X87.680 Y98.882 E0.01673
G1 X69.917 Y81.118 E0.78784
G1 X70.450 Y81.118 E0.01673
G1 X88.214 Y98.882 E0.78784
G1 X88.747 Y98.882 E0.01673
G1 X70.984 Y81.118 E0.78784
G1 X71.517 Y81.118 E0.01673
G1 X89.280 Y98.882 E0.78784
G1 X89.814 Y98.882 E0.01673
G1 X72.051 Y81.118 E0.78784
G1 X72.584 Y81.118 E0.01673
G1 X90.347 Y98.882 E0.78784
G1 X90.881 Y98.882 E0.01673
G1 X73.117 Y81.118 E0.78784
G1 X73.651 Y81.118 E0.01673
G1 X91.414 Y98.882 E0.78784
G1 X91.947 Y98.882 E0.01673
G1 X74.184 Y81.118 E0.78784
G1 X74.718 Y81.118 E0.01673
G1 X92.481 Y98.882 E0.78784
G1 X93.014 Y98.882 E0.01673
G1 X75.251 Y81.118 E0.78784
G1 X75.784 Y81.118 E0.01673
G1 X93.548 Y98.882 E0.78784
G1 X94.081 Y98.882 E0.01673
G1 X76.318 Y81.118 E0.78784
G1 X76.851 Y81.118 E0.01673
G1 X94.614 Y98.882 E0.78784
G1 X95.148 Y98.882 E0.01673
G1 X77.385 Y81.118 E0.78784
G1 X77.918 Y81.118 E0.01673
G1 X95.681 Y98.882 E0.78784
G1 X96.215 Y98.882 E0.01673
G1 X78.451 Y81.118 E0.78784
G1 X78.985 Y81.118 E0.01673
G1 X96.748 Y98.882 E0.78784
G1 X97.281 Y98.882 E0.01673
G1 X79.518 Y81.118 E0.78784
G1 X80.052 Y81.118 E0.01673
G1 X97.815 Y98.882 E0.78784
G1 X98.348 Y98.882 E0.01673
G1 X80.585 Y81.118 E0.78784
G1 X81.118 Y81.118 E0.01673
G1 X98.882 Y98.882 E0.78784
G1 X99.415 Y98.882 E0.01673
G1 X81.652 Y81.118 E0.78784
G1 X82.185 Y81.118 E0.01673
G1 X99.948 Y98.882 E0.78784
G1 X100.482 Y98.882 E0.01673
G1 X82.719 Y81.118 E0.78784
G1 X83.252 Y81.118 E0.01673
G1 X101.015 Y98.882 E0.78784
G1 X101.549 Y98.882 E0.01673
G1 X83.785 Y81.118 E0.78784
G1 X84.319 Y81.118 E0.01673
G1 X102.082 Y98.882 E0.78784
G1 X102.615 Y98.882 E0.01673
G1 X84.852 Y81.118 E0.78784
G1 X85.385 Y81.118 E0.01673
G1 X103.149 Y98.882 E0.78784
G1 X103.682 Y98.882 E0.01673
G1 X85.919 Y81.118 E0.78784
G1 X86.452 Y81.118 E0.01673
G1 X104.216 Y98.882 E0.78784
G1 X104.749 Y98.882 E0.01673
G1 X86.986 Y81.118 E0.78784
G1 X87.519 Y81.118 E0.01673
G1 X105.282 Y98.882 E0.78784
G1 X105.816 Y98.882 E0.01673
G1 X88.052 Y81.118 E0.78784
G1 X88.586 Y81.118 E0.01673
G1 X106.349 Y98.882 E0.78784
G1 X106.883 Y98.882 E0.01673
G1 X89.119 Y81.118 E0.78784
G1 X89.653 Y81.118 E0.01673
G1 X107.416 Y98.882 E0.78784
G1 X107.949 Y98.882 E0.01673
G1 X90.186 Y81.118 E0.78784
G1 X90.719 Y81.118 E0.01673
G1 X108.483 Y98.882 E0.78784
G1 X109.016 Y98.882 E0.01673
G1 X91.253 Y81.118 E0.78784
G1 X91.786 Y81.118 E0.01673
G1 X109.549 Y98.882 E0.78784
G1 X110.083 Y98.882 E0.01673
G1 X92.320 Y81.118 E0.78784
G1 X92.853 Y81.118 E0.01673
G1 X110.616 Y98.882 E0.78784
G1 X111.150 Y98.882 E0.01673
G1 X93.386 Y81.118 E0.78784
M73 P13 R20
G1 X93.920 Y81.118 E0.01673
G1 X111.683 Y98.882 E0.78784
G1 X112.216 Y98.882 E0.01673
G1 X94.453 Y81.118 E0.78784
G1 X94.987 Y81.118 E0.01673
G1 X112.750 Y98.882 E0.78784
G1 X113.283 Y98.882 E0.01673
G1 X95.520 Y81.118 E0.78784
G1 X96.053 Y81.118 E0.01673
G1 X113.817 Y98.882 E0.78784
G1 X114.350 Y98.882 E0.01673
G1 X96.587 Y81.118 E0.78784
G1 X97.120 Y81.118 E0.01673
G1 X114.883 Y98.882 E0.78784
G1 X115.417 Y98.882 E0.01673
G1 X97.654 Y81.118 E0.78784
G1 X98.187 Y81.118 E0.01673
G1 X115.950 Y98.882 E0.78784
G1 X116.484 Y98.882 E0.01673
G1 X98.720 Y81.118 E0.78784
G1 X99.254 Y81.118 E0.01673
G1 X117.017 Y98.882 E0.78784
G1 X117.550 Y98.882 E0.01673
G1 X99.787 Y81.118 E0.78784
G1 X100.321 Y81.118 E0.01673
G1 X118.084 Y98.882 E0.78784
G1 X118.617 Y98.882 E0.01673
G1 X100.854 Y81.118 E0.78784
G1 X101.387 Y81.118 E0.01673
G1 X119.151 Y98.882 E0.78784
G1 X119.684 Y98.882 E0.01673
G1 X101.921 Y81.118 E0.78784
G1 X102.454 Y81.118 E0.01673
G1 X120.217 Y98.882 E0.78784
G1 X120.751 Y98.882 E0.01673
G1 X102.988 Y81.118 E0.78784
G1 X103.521 Y81.118 E0.01673
G1 X121.284 Y98.882 E0.78784
G1 X121.818 Y98.882 E0.01673
G1 X104.054 Y81.118 E0.78784
G1 X104.588 Y81.118 E0.01673
G1 X122.351 Y98.882 E0.78784
G1 X122.884 Y98.882 E0.01673
G1 X105.121 Y81.118 E0.78784
G1 X105.654 Y81.118 E0.01673
G1 X123.418 Y98.882 E0.78784
G1 X123.951 Y98.882 E0.01673
G1 X106.188 Y81.118 E0.78784
G1 X106.721 Y81.118 E0.01673
G1 X124.485 Y98.882 E0.78784
G1 X125.018 Y98.882 E0.01673
G1 X107.255 Y81.118 E0.78784
G1 X107.788 Y81.118 E0.01673
G1 X125.551 Y98.882 E0.78784
G1 X126.085 Y98.882 E0.01673
G1 X108.321 Y81.118 E0.78784
G1 X108.855 Y81.118 E0.01673
G1 X126.618 Y98.882 E0.78784
G1 X127.152 Y98.882 E0.01673
G1 X109.388 Y81.118 E0.78784
G1 X109.922 Y81.118 E0.01673
G1 X127.685 Y98.882 E0.78784
G1 X128.218 Y98.882 E0.01673
G1 X110.455 Y81.118 E0.78784
G1 X110.988 Y81.118 E0.01673
G1 X128.752 Y98.882 E0.78784
G1 X129.285 Y98.882 E0.01673
G1 X111.522 Y81.118 E0.78784
G1 X112.055 Y81.118 E0.01673
G1 X129.818 Y98.882 E0.78784
G1 X130.352 Y98.882 E0.01673
G1 X112.589 Y81.118 E0.78784
G1 X113.122 Y81.118 E0.01673
G1 X130.885 Y98.882 E0.78784
G1 X131.419 Y98.882 E0.01673
G1 X113.655 Y81.118 E0.78784
G1 X114.189 Y81.118 E0.01673
G1 X131.952 Y98.882 E0.78784
G1 X132.485 Y98.882 E0.01673
G1 X114.722 Y81.118 E0.78784
G1 X115.256 Y81.118 E0.01673
G1 X133.019 Y98.882 E0.78784
G1 X133.552 Y98.882 E0.01673
G1 X115.789 Y81.118 E0.78784
G1 X116.322 Y81.118 E0.01673
G1 X134.086 Y98.882 E0.78784
G1 X134.619 Y98.882 E0.01673
G1 X116.856 Y81.118 E0.78784
G1 X117.389 Y81.118 E0.01673
G1 X134.881 Y98.610 E0.77579
G1 X134.881 Y98.077 E0.01673
G1 X117.923 Y81.118 E0.75213
G1 X118.456 Y81.118 E0.01673
G1 X134.881 Y97.543 E0.72848
M73 P18 R19
G1 X134.881 Y97.010 E0.01673
G1 X118.989 Y81.118 E0.70482
G1 X119.523 Y81.118 E0.01673
G1 X134.881 Y96.477 E0.68116
G1 X134.881 Y95.943 E0.01673
G1 X120.056 Y81.118 E0.65751
G1 X120.590 Y81.118 E0.01673
G1 X134.881 Y95.410 E0.63385
G1 X134.881 Y94.876 E0.01673
G1 X121.123 Y81.118 E0.61019
G1 X121.656 Y81.118 E0.01673
G1 X134.881 Y94.343 E0.58653
G1 X134.881 Y93.810 E0.01673
G1 X122.190 Y81.118 E0.56288
G1 X122.723 Y81.118 E0.01673
G1 X134.881 Y93.276 E0.53922
G1 X134.881 Y92.743 E0.01673
G1 X123.257 Y81.118 E0.51556
G1 X123.790 Y81.118 E0.01673
G1 X134.881 Y92.209 E0.49191
G1 X134.881 Y91.676 E0.01673
G1 X124.323 Y81.118 E0.46825
G1 X124.857 Y81.118 E0.01673
G1 X134.881 Y91.143 E0.44459
G1 X134.881 Y90.609 E0.01673
G1 X125.390 Y81.118 E0.42094
G1 X125.923 Y81.118 E0.01673
G1 X134.881 Y90.076 E0.39728
G1 X134.881 Y89.542 E0.01673
G1 X126.457 Y81.118 E0.37362
G1 X126.990 Y81.118 E0.01673
G1 X134.881 Y89.009 E0.34996
G1 X134.881 Y88.476 E0.01673
G1 X127.524 Y81.118 E0.32631
G1 X128.057 Y81.118 E0.01673
G1 X134.881 Y87.942 E0.30265
G1 X134.881 Y87.409 E0.01673
G1 X128.590 Y81.118 E0.27899
G1 X129.124 Y81.118 E0.01673
G1 X134.881 Y86.875 E0.25534
G1 X134.881 Y86.342 E0.01673
G1 X129.657 Y81.118 E0.23168
G1 X130.191 Y81.118 E0.01673
G1 X134.881 Y85.809 E0.20802
G1 X134.881 Y85.275 E0.01673
G1 X130.724 Y81.118 E0.18436
G1 X131.257 Y81.118 E0.01673
G1 X134.881 Y84.742 E0.16071
G1 X134.881 Y84.208 E0.01673
G1 X131.791 Y81.118 E0.13705
G1 X132.324 Y81.118 E0.01673
G1 X134.881 Y83.675 E0.11339
G1 X134.881 Y83.142 E0.01673
G1 X132.858 Y81.118 E0.08974
G1 X133.391 Y81.118 E0.01673
G1 X134.881 Y82.608 E0.06608
G1 X134.881 Y82.075 E0.01673
G1 X133.924 Y81.118 E0.04242
G1 X134.458 Y81.118 E0.01673
G1 X135.051 Y81.711 E0.02629
M204 S1250
M106 S255
;BEFORE_LAYER_CHANGE
G92 E0.0
;0.4


G1 Z0.400 F9000.000
;AFTER_LAYER_CHANGE
;0.4
M104 S210 ; set temperature
G1 E-3.20000 F4200.00000
G1 Z0.600 F9000.000
G1 X137.759 Y79.379
G1 Z0.400
G1 E3.20000 F2400.00000
G1 X137.939 Y80.202 E0.02642
G1 X137.933 Y99.919 E0.61821
G1 X137.773 Y100.589 E0.02157
G1 X137.413 Y101.175 E0.02157
G1 X136.889 Y101.621 E0.02157
G1 X136.256 Y101.881 E0.02146
G1 X135.753 Y101.940 E0.01589
G1 X44.213 Y101.940 E2.87018
G1 X43.504 Y101.809 E0.02259
G1 X42.876 Y101.456 E0.02259
G1 X42.399 Y100.921 E0.02247
G1 X42.120 Y100.257 E0.02259
G1 X42.061 Y99.757 E0.01578
G1 X42.067 Y80.088 E0.61672
G1 X42.224 Y79.418 E0.02157
G1 X42.582 Y78.831 E0.02157
G1 X43.105 Y78.383 E0.02157
G1 X43.744 Y78.119 E0.02168
G1 X44.247 Y78.060 E0.01589
G1 X135.754 Y78.060 E2.86915
G1 X136.581 Y78.224 E0.02642
G1 X137.282 Y78.685 E0.02631
G1 X137.725 Y79.330 E0.02454
G1 E-3.20000 F4200.00000
G1 Z0.600 F9000.000
G1 X135.119 Y80.881
G1 Z0.400
G1 E3.20000 F2400.00000
M204 S800
G1 X135.119 Y99.119 E0.61736
G1 X44.881 Y99.119 E3.05443
G1 X44.881 Y80.881 E0.61736
G1 X135.059 Y80.881 E3.05240
M204 S1250
G1 X135.526 Y80.473 F9000.000
M204 S800
G1 F1800
G1 X135.526 Y99.526 E0.64492
G1 X44.474 Y99.526 E3.08198
G1 X44.474 Y80.473 E0.64492
G1 X135.466 Y80.473 E3.07995
M204 S1250
G1 X135.350 Y80.833 F9000.000
G1 E-3.20000 F4200.00000
G1 Z0.600 F9000.000
G1 X134.170 Y98.997
G1 Z0.400
G1 E3.20000 F2400.00000
M204 S1000
G1 F4800
G1 X134.813 Y98.354 E0.03090
G1 X134.813 Y97.776 E0.01964
G1 X133.776 Y98.814 E0.04987
G1 X133.198 Y98.814 E0.01964
G1 X134.813 Y97.198 E0.07764
G1 X134.813 Y96.621 E0.01964
G1 X132.620 Y98.814 E0.10541
G1 X132.042 Y98.814 E0.01964
G1 X134.813 Y96.043 E0.13318
G1 X134.813 Y95.465 E0.01964
G1 X131.464 Y98.814 E0.16095
G1 X130.886 Y98.814 E0.01964
